X:1
T:Ilsley, 87.87 D
T:Ilsley, 87.87 D
T:Francis Grenville Ilsley, 1887
T:Public Domain Courtesy of the Cyber Hymnal™
C:Francis Grenville Ilsley, 1887
Z:Public Domain
Z:Courtesy of the Cyber Hymnal™
%%score ( 1 2 ) ( 3 4 )
L:1/8
Q:1/4=102
M:3/4
K:C
V:1 treble 
V:2 treble 
V:3 bass 
V:4 bass 
V:1
 EE | [Ec]3 [Ec] [^Dc][=DB] | [CA]2 [CA]2 [DG][DF] | [DE]3 [Dd] [Dc][DB] | [CA]4 AA | %5
 [Ad]3 [Ad] [Ac][Ac] | [AB]2 [AB]2 [^FA][FA] | [E^G]3 [EG] [^DA][DA] | [DB]4 [DE][DE] | %9
 [^C^c]3 [CA] [CE][C^F] | [D^G]2 [DG]2 [DE][DE] | [Dd]3 [DB] [D^G][D^F] | [^CE]4 AA | %13
 [=Ge]3 [G^c] [GB][GA] | [^Fd]2 [Fd]2 F[FB] | [EA]3 [^CE] [D^F][DB] | [^CA]4 |] %17
V:2
 EE | x6 | x6 | x6 | x4 AA | x6 | x6 | x6 | x6 | x6 | x6 | x6 | x4 AA | x6 | x4 ^F x | x6 | x4 |] %17
V:3
 E,E, | [A,,E,]3 [A,,E,] [A,,^F,][A,,^G,] | [A,,A,]2 [A,,A,]2 [D,A,][D,A,] | %3
 [E,A,]3 [E,^G,] [E,G,][E,G,] | [A,,A,]4 A,A, | [F,A,]3 [F,D] [E,E][E,E] | %6
 [D,F]2 [D,F]2 [^D,C][D,C] | [E,B,]3 [E,B,] [E,^F,][E,F,] | [E,^G,]4 [E,G,][E,G,] | %9
 [A,,A,]3 [A,,E,] [A,,E,][A,,E,] | [B,,E,]2 [B,,E,]2 [B,,E,][B,,E,] | %11
 [E,^G,]3 [E,G,] [E,B,][E,G,] | [A,,A,]4 A,A, | [A,^C]3 [A,E] [A,D][A,C] | %14
 [D,D]2 [D,D]2 [D,B,][B,,D] | [E,^C]3 [E,A,] [E,A,][E,^G,] | [A,,A,]4 |] %17
V:4
 E,E, | x6 | x6 | x6 | x4 A,A, | x6 | x6 | x6 | x6 | x6 | x6 | x6 | x4 A,A, | x6 | x6 | x6 | x4 |] %17

